docs/images/icons/Figma.svg

<svg width="40" height="60" viewBox="0 0 40 60" fill="none" xmlns="http://www.w3.org/2000/svg">
<g clip-path="url(#clip0_43_19)">
<path d="M10.002 60C15.5209 60 20 55.52 20 50V40H10.002C4.48313 40 0.00402832 44.48 0.00402832 50C0.00402832 55.52 4.48313 60 10.002 60Z" fill="#0ACF83"/>
<path d="M0.00402832 30C0.00402832 24.48 4.48313 20 10.002 20H20V40H10.002C4.48313 40 0.00402832 35.52 0.00402832 30Z" fill="#A259FF"/>
<path d="M0.00408936 10C0.00408936 4.48 4.48319 0 10.0021 0H20.0001V20H10.0021C4.48319 20 0.00408936 15.52 0.00408936 10Z" fill="#F24E1E"/>
<path d="M20 0H29.998C35.5169 0 39.996 4.48 39.996 10C39.996 15.52 35.5169 20 29.998 20H20V0Z" fill="#FF7262"/>
<path d="M39.996 30C39.996 35.52 35.5169 40 29.998 40C24.4791 40 20 35.52 20 30C20 24.48 24.4791 20 29.998 20C35.5169 20 39.996 24.48 39.996 30Z" fill="#1ABCFE"/>
</g>
<defs>
<clipPath id="clip0_43_19">
<rect width="40" height="60" fill="white"/>
</clipPath>
</defs>
</svg>

<svg width="40" height="60" fill="none" xmlns="http://www.w3.org/2000/svg"><g clip-path="url(#a)"><path d="M10.002 60C15.521 60 20 55.52 20 50V40h-9.998C4.483 40 .004 44.48.004 50s4.48 10 9.998 10Z" fill="#0ACF83"/><path d="M.004 30c0-5.52 4.48-10 9.998-10H20v20h-9.998C4.483 40 .004 35.52.004 30Z" fill="#A259FF"/><path d="M.004 10c0-5.52 4.48-10 9.998-10H20v20h-9.998C4.483 20 .004 15.52.004 10Z" fill="#F24E1E"/><path d="M20 0h9.998c5.519 0 9.998 4.48 9.998 10s-4.48 10-9.998 10H20V0Z" fill="#FF7262"/><path d="M39.996 30c0 5.52-4.48 10-9.998 10C24.479 40 20 35.52 20 30s4.48-10 9.998-10c5.519 0 9.998 4.48 9.998 10Z" fill="#1ABCFE"/></g><defs><clipPath id="a"><path fill="#fff" d="M0 0h40v60H0z"/></clipPath></defs></svg>
